X:145
T:The Derry Air
M:C
L:1/8
K:G
FGA|B2 A BedB|AG E2 z GAB|d3 e dBGB|A4 z FGA|
B3 A BedB| AGE>^D EFGA|B3 c BAGA|G4 z||
def|g3 f fedB|dB G2 z def| g3 f fedB|A4 z ddd|
b3 a ageg|dB G2 z FGA|BedB AGEF|G2 G |>|
